packages/calcite-ui-icons/icons/portal-other-24.svg

<?xml version="1.0" encoding="UTF-8"?><svg id="icons" xmlns="http://www.w3.org/2000/svg" viewBox="0 0 24 24"><defs><style>.cls-1{fill:none;}</style></defs><path d="M8.93518,13.94873l-.94366.55121,4.50818,2.63361,4.50867-2.63361-.94366-.55115.992-.57867,1.93433,1.12982-6.49133,3.79175-6.49072-3.79175,1.93427-1.12988.99194.57867ZM18.99103,10.49994l-6.49133,3.79175-6.49072-3.79175,6.49072-3.79156,6.49133,3.79156ZM12.49969,13.13354l4.50867-2.63361-4.50867-2.63348-4.50818,2.63348,4.50818,2.63361ZM11,2v-1c0-.55231.44769-1,1-1h1c.55231,0,1,.44769,1,1v1c0,.55225-.44769,1-1,1v2h-1v-2c-.55231,0-1-.44775-1-1ZM12,2h1v-1h-1v1ZM14,22v1c0,.55225-.44769,1-1,1h-1c-.55231,0-1-.44775-1-1v-1c0-.55231.44769-1,1-1v-2h1v2c.55231,0,1,.44769,1,1ZM13,22h-1v1h1v-1ZM14.06281,3.67358c-.02234.01422-.03986.03473-.06281.0481v1.02161l7,3.17273v7.18555c0,2.60938-2.13965,4.89844-4.57812,4.89844h-2.42188v.27832c.29956.17474.55017.42377.72601.72162h1.69617c3.08057,0,5.57788-2.81732,5.57788-5.89868v-7.8299l-7.93726-3.59778ZM11,20h-4.19922c-1.46582,0-2.80078-1.4873-2.80078-3.12012v-6.56055c0-1.18945.65918-2.26367,1.72168-2.80176l5.27832-2.67517v-1.12073l-.00073-.00055-5.72949,2.90442c-1.39026.70471-2.26971,2.13483-2.26971,3.69354v6.56042c0,2.09967,1.70154,4.12042,3.80072,4.12042h3.47321c.17584-.29785.42645-.54688.72601-.72162v-.27832Z"/><rect class="cls-1" width="24" height="24"/></svg>

<svg xmlns="http://www.w3.org/2000/svg" viewBox="0 0 24 24"><path d="M8.935 13.949l-.943.55 4.508 2.635 4.508-2.634-.943-.551.992-.579 1.934 1.13-6.491 3.792L6.009 14.5l1.934-1.13.992.579zm10.056-3.45L12.5 14.293 6.009 10.5l6.49-3.792 6.492 3.792zM12.5 13.135l4.508-2.634L12.5 7.866 7.992 10.5l4.508 2.634zM11 2V1a1 1 0 0 1 1-1h1a1 1 0 0 1 1 1v1a1 1 0 0 1-1 1v2h-1V3a1 1 0 0 1-1-1zm1 0h1V1h-1v1zm2 20v1a1 1 0 0 1-1 1h-1a1 1 0 0 1-1-1v-1a1 1 0 0 1 1-1v-2h1v2a1 1 0 0 1 1 1zm-1 0h-1v1h1v-1zm1.063-18.326c-.023.014-.04.034-.063.048v1.021l7 3.173v7.186C21 17.71 18.86 20 16.422 20H14v.278c.3.175.55.424.726.722h1.696C19.502 21 22 18.183 22 15.101v-7.83l-7.937-3.597zM11 20H6.8C5.336 20 4 18.513 4 16.88v-6.56c0-1.19.66-2.264 1.722-2.802L11 4.842v-1.12L5.27 6.625A4.145 4.145 0 0 0 3 10.319v6.56C3 18.98 4.702 21 6.8 21h3.474c.176-.297.426-.546.726-.72V20z"/><path fill="none" d="M0 0h24v24H0z"/></svg>
